!!!COM: Faure, Gabriel
!!!CDT: 1845/05/12/-1924/11/04/
!!!CNT@EN: French
!!!OTL: Apr&egrave;s un R&ecirc;ve, Op. 7, No. 1
!!!OPS: Op. 7
!!!ODT: 1877
!!!ONM: No. 1
!!!ODE: &agrave; Madame Margu&eacute;rite Baugnies
!!!OMD: Andantino
!!!PDT: 1878
**kern	**kern	**dynam	**kern	**dynam
*staff3	*staff2	*staff2	*staff1	*staff1
*Ipiano	*Ipiano	*Ipiano	*Ivox	*Ivox
*clefF4	*clefG2	*clefG2	*clefG2	*clefG2
*k[b-e-a-]	*k[b-e-a-]	*k[b-e-a-]	*k[b-e-a-]	*k[b-e-a-]
*c:	*c:	*c:	*c:	*c:
*M3/4	*M3/4	*M3/4	*M3/4	*M3/4
*MM66	*MM66	*MM66	*MM66	*MM66
=1-	=1-	=1-	=1-	=1-
2.r	8c/ 8e-/ 8g/L	pp	2.r	.
.	8c/ 8e-/ 8g/	.	.	.
.	8c/ 8e-/ 8g/	.	.	.
.	8c/ 8e-/ 8g/	.	.	.
.	8c/ 8e-/ 8g/	.	.	.
.	8c/ 8e-/ 8g/J	.	.	.
=2	=2	=2	=2	=2
2.r	8c/ 8e-/ 8g/L	.	4g/	.
.	8c/ 8e-/ 8g/	.	.	.
.	8c/ 8e-/ 8g/	.	4cc\	<
.	8c/ 8e-/ 8g/	.	.	.
.	8B-/ 8d/ 8e-/ 8g/	.	4dd\	.
.	8B-/ 8d/ 8e-/ 8g/J	.	.	.
=3	=3	=3	=3	=3
2.FFF/ 2.FF/	8An/ 8c/ 8e-/ 8g/L	.	[4ee-\	.
.	8A/ 8c/ 8e-/ 8g/	.	.	.
.	8A/ 8c/ 8e-/ 8g/	.	12ee-\]	.
.	.	.	12dd\	.
.	8A/ 8c/ 8e-/ 8g/	.	.	.
.	.	.	12cc\	.
.	8A/ 8c/ 8e-/ 8f/	.	12ee-\	.
.	.	.	12dd\	.
.	8A/ 8c/ 8e-/ 8f/J	.	.	.
.	.	.	12cc\	.
=4	=4	=4	=4	=4
2.BBB-/ 2.BB-/	8A-/ 8c/ 8d/ 8f/L	.	2cc\	>
.	8A-/ 8c/ 8d/ 8f/	.	.	.
.	8A-/ 8c/ 8d/ 8f/	.	.	.
.	8A-/ 8c/ 8d/ 8f/	.	.	.
.	8A-/ 8B-/ 8d/ 8f/	.	4b-\	.
.	8A-/ 8B-/ 8d/ 8f/J	.	.	.
=5	=5	=5	=5	=5
2.EEE-/ 2.EE-/	8A-/ 8d-/ 8f/L	.	8dd-\	.
.	8A-/ 8d-/ 8f/	.	8f/	.
.	8A-/ 8d-/ 8f/	.	4dd-\	.
.	8A-/ 8d-/ 8f/	.	.	.
.	8G/ 8d-/ 8f-/	.	8cc\	.
.	8G/ 8d-/ 8f-/J	.	8bn\	.
=6	=6	=6	=6	=6
2AAA-/ 2AA-/	8A-/ 8c/ 8en/L	.	4.cc\	<
.	8A-/ 8c/ 8e/	.	.	.
.	8A-/ 8c/ 8e/	.	.	.
.	8A-/ 8c/ 8e/	.	8cc\	.
4DDD/ 4DD/	8A-/ 8c/ 8f/	.	8.b-\	.
.	8A-/ 8c/ 8f/J	.	.	.
.	.	.	16a-/	.
=7	=7	=7	=7	=7
[2.GGG/ [2.GG/	8F/ 8G/ 8d/L	.	4g/	>
.	8F/ 8G/ 8Bn/ 8d/	.	.	.
.	8F/ 8G/ 8B/ 8d/	.	(12g/L	.
.	.	.	12a-/	.
.	8F/ 8G/ 8B/ 8d/	.	.	.
.	.	.	12b-/J	.
.	8F/ 8A-/ 8c/ 8d/	.	12a-\L	.
.	.	.	12b-\	.
.	8F/ 8A-/ 8c/ 8d/J	.	.	.
.	.	.	12cc\J)	.
=8	=8	=8	=8	=8
2.GGG/] 2.GG/]	8F/ 8G/ 8d/L	.	2.g/	.
.	8F/ 8G/ 8B-/ 8d/	.	.	.
.	8F/ 8G/ 8B-/ 8d/	.	.	.
.	8F/ 8G/ 8B-/ 8d/	.	.	.
.	8F/ 8G/ 8B-/ 8d/	.	.	.
.	8F/ 8G/ 8B-/ 8d/J	.	.	.
=9	=9	=9	=9	=9
2.CC/ 2.C/	8G/ 8c/ 8e-/L	.	4g/	.
.	8G/ 8c/ 8e-/	.	.	.
.	8G/ 8c/ 8e-/	.	6e-/	.
.	8G/ 8c/ 8e-/	.	.	.
.	.	.	12f/	.
.	8G/ 8c/ 8e-/	.	6g/	.
.	8G/ 8c/ 8e-/J	.	.	.
.	.	.	12a-/	.
=10	=10	=10	=10	=10
2.DD-/ 2.D-/	8F/ 8B-/ 8f/L	.	[4b-\	.
.	8F/ 8B-/ 8f/	.	.	.
.	8F/ 8B-/ 8f/	.	12b-\]	.
.	.	.	12f/	.
.	8F/ 8B-/ 8f/	.	.	.
.	.	.	12f/	.
.	8F/ 8B-/ 8f/	.	12f/	.
.	.	.	12en/	.
.	8F/ 8B-/ 8f/J	.	.	.
.	.	.	12f/	.
=11	=11	=11	=11	=11
2.BBB-/ 2.BB-/	8A-/ 8d-/ 8f/L	.	2a-/	.
.	8A-/ 8d-/ 8f/	.	.	.
.	8A-/ 8d-/ 8f/	.	.	.
.	8A-/ 8d-/ 8f/	.	.	.
.	8G/ 8d-/ 8en/	.	4g/	.
.	8G/ 8d-/ 8e/J	.	.	.
=12	=12	=12	=12	=12
2.AAA-/ 2.AA-/	8F/ 8c/ 8f/L	.	4cc\	<
.	8F/ 8c/ 8f/	.	.	.
.	8F/ 8c/ 8e-/	.	4.cc\	.
.	8F/ 8c/ 8e-/	.	.	.
.	8F/ 8c/ 8d/	.	.	.
.	8F/ 8c-/ 8d/J	.	8cc-\	.
=13	=13	=13	=13	=13
2GGG/ 2GG/	8E-/ 8B-/ 8e-/L	.	4b-\	.
.	8E-/ 8B-/ 8e-/	.	.	.
.	8E-/ 8B-/ 8e-/	.	4e-/	.
.	8E-/ 8B-/ 8e-/	.	.	.
4CC/ 4C/	8G/ 8c/ 8e-/	.	4e-/	.
.	8G/ 8c/ 8e-/J	.	.	.
=14	=14	=14	=14	=14
4CC-/ 4C-/	8A-/ 8e-/ 8f/L	.	[4f/	.
.	8A-/ 8e-/ 8f/	.	.	.
2BBB-/ 2BB-/	8A-/ 8e-/ 8f/	.	12f/]	.
.	.	.	12g-/	>
.	8A-/ 8e-/ 8f/	.	.	.
.	.	.	12a-/	.
.	8A-/ 8d/ 8f/	.	12g-/	.
.	.	.	12a-/	.
.	8A-/ 8d/ 8f/J	.	.	.
.	.	.	12b-\	.
=15	=15	=15	=15	=15
2.EEE-/ 2.EE-/	8G/ 8B-/ 8e-/ 8g/L	.	2b-\	.
.	8G/ 8B-/ 8e-/ 8g/	.	.	.
.	8G/ 8B-/ 8e-/ 8g/	.	.	.
.	8G/ 8B-/ 8e-/ 8g/	.	.	.
.	8G/ 8B-/ 8e-/ 8g/	.	4e-/	.
.	8G/ 8B-/ 8e-/ 8g/J	.	.	.
=16	=16	=16	=16	=16
2.GGG/ 2.GG/	8G/ 8e-/ 8g/L	.	2.r	.
.	8G/ 8Bn/ 8e-/ 8g/	.	.	.
.	8G/ 8B/ 8e-/ 8g/	.	.	.
.	8G/ 8B/ 8e-/ 8g/	.	.	.
.	8F/ 8B/ 8d/ 8g/	.	.	.
.	8F/ 8B/ 8d/ 8g/J	.	.	.
=17	=17	=17	=17	=17
2.CC/ 2.C/	8E-/ 8c/ 8g/L	.	4g/	<
.	8c/ 8e-/ 8g/	.	.	.
.	8c/ 8e-/ 8g/	.	4cc\	.
.	8c/ 8e-/ 8g/	.	.	.
.	8B-/ 8d/ 8e-/ 8g/	.	4dd\	.
.	8B-/ 8d/ 8e-/ 8g/J	.	.	.
=18	=18	=18	=18	=18
2.FFF/ 2.FF/	8An/ 8c/ 8e-/ 8g/L	.	[4ee-\	.
.	8A/ 8c/ 8e-/ 8g/	.	.	.
.	8A/ 8c/ 8e-/ 8g/	.	12ee-\]	.
.	.	.	12dd\	.
.	8A/ 8c/ 8e-/ 8g/	.	.	.
.	.	.	12cc\	.
.	8A/ 8c/ 8e-/ 8f/	.	12ee-\	.
.	.	.	12dd\	.
.	8A/ 8c/ 8e-/ 8f/J	.	.	.
.	.	.	12cc\	.
=19	=19	=19	=19	=19
2.BBB-/ 2.BB-/	8A-/ 8c/ 8d/ 8f/L	.	2cc\	>
.	8A-/ 8c/ 8d/ 8f/	.	.	.
.	8A-/ 8c/ 8d/ 8f/	.	.	.
.	8A-/ 8c/ 8d/ 8f/	.	.	.
.	8A-/ 8B-/ 8d/ 8f/	.	4b-\	.
.	8A-/ 8B-/ 8d/ 8f/J	.	.	.
=20	=20	=20	=20	=20
2.EEE-/ 2.EE-/	8A-/ 8d-/ 8f/L	.	8dd-\	.
.	8A-/ 8d-/ 8f/	.	8f/	.
.	8A-/ 8d-/ 8f/	.	4dd-\	.
.	8A-/ 8d-/ 8f/	.	.	.
.	8G/ 8d-/ 8f-/	.	8cc\	.
.	8G/ 8d-/ 8f-/J	.	8bn\	.
=21	=21	=21	=21	=21
2AAA-/ 2AA-/	8A-/ 8c/ 8en/L	.	4.cc\	.
.	8A-/ 8c/ 8e/	.	.	.
.	8A-/ 8c/ 8e/	.	.	.
.	8A-/ 8c/ 8e/	.	8cc\	.
4DDD/ 4DD/	8A-/ 8c/ 8f/	.	8b-\	.
.	8A-/ 8c/ 8f/J	.	8a-/	.
=22	=22	=22	=22	=22
[2.GGG/ [2.GG/	8F/ 8G/ 8d/L	.	4g/	.
.	8F/ 8G/ 8Bn/ 8d/	.	.	.
.	8F/ 8G/ 8B/ 8d/	.	(12g/L	.
.	.	.	12a-/	.
.	8F/ 8G/ 8B/ 8d/	.	.	.
.	.	.	12b-/J	.
.	8F/ 8A-/ 8c/ 8d/	.	12a-\L	.
.	.	.	12b-\	.
.	8F/ 8A-/ 8c/ 8d/J	.	.	.
.	.	.	12cc\J)	.
=23	=23	=23	=23	=23
2.GGG/] 2.GG/]	8F/ 8G/ 8d/L	.	2.g/	.
.	8F/ 8G/ 8B-/ 8d/	.	.	.
.	8F/ 8G/ 8B-/ 8d/	.	.	.
.	8F/ 8G/ 8B-/ 8d/	.	.	.
.	8F/ 8G/ 8B-/ 8d/	.	.	.
.	8F/ 8G/ 8B-/ 8d/J	.	.	.
=24	=24	=24	=24	=24
2.CC/ 2.C/	8G/ 8c/ 8e-/L	.	4g/	.
.	8G/ 8c/ 8e-/	.	.	.
.	8G/ 8c/ 8e-/	.	(6e-/	.
.	8G/ 8c/ 8e-/	.	.	.
.	.	.	12f/)	.
.	8G/ 8c/ 8e-/	.	(6g/	.
.	8G/ 8c/ 8e-/J	.	.	.
.	.	.	12a-/)	.
=25	=25	=25	=25	=25
2.DD-/ 2.D-/	8F/ 8B-/ 8f/L	.	4.b-\	.
.	8F/ 8B-/ 8f/	.	.	.
.	8F/ 8B-/ 8f/	.	.	.
.	8F/ 8B-/ 8f/	.	8f/	.
.	8F/ 8B-/ 8f/	.	12f/	.
.	.	.	12en/	.
.	8F/ 8B-/ 8f/J	.	.	.
.	.	.	12f/	.
=26	=26	=26	=26	=26
2.EEn/	8A-/ 8c/L	.	4a-/	.
.	8A-/ 8c/	.	.	.
.	8G/ 8B-/ 8c/	.	4g/	.
.	8G/ 8B-/ 8c/	.	.	.
.	8G/ 8B-/ 8c/	.	4c/	.
.	8G/ 8B-/ 8c/J	.	.	.
=27	=27	=27	=27	=27
2FF/	8F/ 8A-/ 8d-/L	.	[4d-/	.
.	8F/ 8A-/ 8d-/	.	.	.
.	8F/ 8A-/ 8d-/	.	(12d-/L]	.
.	.	.	12e-/	.
.	8F/ 8A-/ 8c/	.	.	.
.	.	.	12f/J)	.
4GG/	8F/ 8G/ 8c/	.	(12e-/L	.
.	.	.	12f/J)	.
.	8F/ 8G/J	.	.	.
.	.	.	12g/	.
=28	=28	=28	=28	=28
2.CC/	8En/ 8G/ 8c/L	.	4g/	.
.	8E/ 8G/ 8c/	.	.	.
.	8E/ 8G/ 8c/	.	4c/	.
.	8E/ 8G/ 8c/	.	.	.
.	8E/ 8G/ 8c/	.	4en/	.
.	8E/ 8G/ 8c/J	.	.	.
=29	=29	=29	=29	=29
2AAA-/ 2AA-/	8F/ 8c/ 8d-/L	.	6f/	.
.	8F/ 8c/ 8d-/	.	.	.
.	.	.	12f/	.
.	8F/ 8c/ 8d-/	.	(12f/L	.
.	.	.	12g/J)	.
.	8F/ 8c/ 8d-/	.	.	.
.	.	.	12a-/	.
4FFF/ 4FF/	8A-/ 8c/ 8dn/	.	12b-/L	.
.	.	.	12a-/J	.
.	8A-/ 8c/ 8d/J	.	.	.
.	.	.	12b-\	.
=30	=30	=30	=30	=30
2CC/ 2C/	8G/ 8c/ 8en/L	<	4cc\	.
.	8G/ 8c/ 8e/	.	.	.
.	8G/ 8c/ 8e/	.	4c/	.
.	8G/ 8c/ 8e/	.	.	.
4BBB-/ 4BB-/	8G/ 8c/ 8e/	.	4cc\	.
.	8G/ 8c/ 8e/J	.	.	.
=31	=31	=31	=31	=31
2.AAAn/ 2.AAn/	8F/ 8c/ 8e-/ 8f/L	.	2ff\	f
.	8F/ 8c/ 8e-/ 8f/	.	.	.
.	8F/ 8c/ 8e-/ 8f/	.	.	.
.	8F/ 8c/ 8e-/ 8f/	.	.	.
.	8e-/ 8f/ 8cc/	.	4f/	.
.	8e-/ 8f/ 8cc/J	.	.	.
=32	=32	=32	=32	=32
2.BBB-/ 2.BB-/	8e-/ 8f/ 8cc/L	.	4f/	.
.	8e-/ 8f/ 8cc/	.	.	.
.	8d-/ 8f/ 8b-/	.	12f/	.
.	.	.	12g/	.
.	8d-/ 8f/ 8b-/	.	.	.
.	.	.	12an/	.
.	8c/ 8f/ 8a-/	.	(12b-\L	.
.	.	.	12cc\J)	.
.	8c/ 8f/ 8a-/J	.	.	.
.	.	.	12dd-\	.
=33	=33	=33	=33	=33
[2.EE-/ [2.E-/	8B-/ 8d-/ 8f/ 8g/L	.	[4dd-\	.
.	8B-/ 8d-/ 8f/ 8g/	.	.	.
.	8B-/ 8d-/ 8f/ 8g/	.	(12dd-\L]	>
.	.	.	12cc\	.
.	8B-/ 8d-/ 8f/ 8g/	.	.	.
.	.	.	12ee-\J	.
.	8B-/ 8d-/ 8f/ 8a-/	.	12dd-\L	.
.	.	.	12cc\	.
.	8B-/ 8d-/ 8f/ 8a-/J	.	.	.
.	.	.	12b-\J)	.
=34	=34	=34	=34	=34
4EE-/] 4E-/]	8B-/ 8d-/ 8e-/ 8g/L	.	2dd-\	.
.	8B-/ 8d-/ 8e-/ 8g/	.	.	.
4r	8e-/ 8g/	.	.	.
.	8e-/ 8g/	.	.	.
4r	8d-/ 8e-/ 8g/	<	8.b-\	<
.	8d-/ 8e-/ 8g/J	.	.	.
.	.	.	16b-\	.
=35	=35	=35	=35	=35
2.r	8c/ 8e-/ 8g/L	.	2ee-\	.
.	8c/ 8e-/ 8g/	.	.	.
.	8B-/ 8e-/ 8g/	.	.	.
.	8B-/ 8e-/ 8g/	.	.	.
.	8A-/ 8B-/ 8d-/ 8f/	.	4dd-\	.
.	8A-/ 8B-/ 8d-/ 8f/J	.	.	.
=36	=36	=36	=36	=36
4r	8G/ 8B-/ 8d-/ 8f/L	.	[4dd-\	.
.	8G/ 8B-/ 8d-/ 8f/	.	.	.
(4C/	8G/ 8B-/ 8d-/ 8en/	.	(12dd-\L]	.
.	.	.	12cc\J)	.
.	8G/ 8B-/ 8d-/ 8e/	.	.	.
.	.	.	12b-\	.
4FF/	8A-/ 8c/ 8f/	.	12a-/	.
.	.	.	12g/	.
.	8A-/ 8c/ 8f/J	.	.	.
.	.	.	12f/	.
=37	=37	=37	=37	=37
2BBn/	8G/ 8d/ 8f/L	>	[4g/	>
.	8G/ 8d/ 8f/	.	.	.
.	8G/ 8d/ 8f/	.	(12g/L]	.
.	.	.	12a-/	.
.	8G/ 8d/ 8f/	.	.	.
.	.	.	12g/J	.
4C/	8A-/ 8d/ 8f/	.	12f/L	.
.	.	.	12g/	.
.	8A-/ 8d/ 8f/J	.	.	.
.	.	.	12a-/J)	.
=38	=38	=38	=38	=38
4BBn/	8G/ 8d/ 8f/L	.	2g/	.
.	8G/ 8d/ 8f/	.	.	.
4GG/	8G/ 8Bn/ 8e-/	.	.	.
.	8G/ 8B/ 8e-/	.	.	.
4FF/)	8G/ 8B/ 8d/	.	4g/	.
.	8G/ 8B/ 8d/J	.	.	.
=39	=39	=39	=39	=39
(4EE-/	8G/ 8c/L	.	2cc\	.
.	8G/ 8c/	.	.	.
4AA-/	8F/ 8c/ 8d/	.	.	.
.	8F/ 8c/ 8d/	.	.	.
4GG/	8B-/ 8c/ 8en/	.	4cc\	.
.	8B-/ 8c/ 8e/J	.	.	.
=40	=40	=40	=40	=40
4FF/	8A-/ 8c/ 8f/L	.	2cc\	.
.	8A-/ 8c/ 8f/	.	.	.
4EE-/	8c/ 8g/	.	.	.
.	8c/ 8g/	.	.	.
4DD/	8c/ 8f#/ 8an/	.	8.cc\	.
.	8c/ 8f#/ 8a/J	.	.	.
.	.	.	16dd\	.
=41	=41	=41	=41	=41
4GG/	8B-/ 8e-/ 8b-/L	.	2.ee-\	f
.	8B-/ 8e-/ 8b-/	.	.	.
2AAn/)	8e-/ 8f/ 8cc/	.	.	.
.	8e-/ 8f/ 8cc/	.	.	.
.	8c/ 8e-/ 8f/	.	.	.
.	8c/ 8e-/ 8f/J	.	.	.
=42	=42	=42	=42	=42
(4BB-/	8d/ 8f/ 8a-/L	.	2dd\	>
.	8d/ 8f/ 8a-/	.	.	.
2BBn/	8d/ 8f/ 8g/	.	.	.
.	8d/ 8f/ 8g/	.	.	.
.	8A-/ 8d/ 8f/	.	4dd\	.
.	8A-/ 8d/ 8f/J	.	.	.
=43	=43	=43	=43	=43
2C/	8A-/ 8d/ 8f/L	p	2dd\	p
.	8A-/ 8d/ 8f/	.	.	.
.	8G/ 8d/ 8f/	.	.	.
.	8G/ 8d/ 8f/	.	.	.
4CC/	8G/ 8c/ 8e-/	.	4cc\	.
.	8G/ 8c/ 8e-/J	.	.	.
=44	=44	=44	=44	=44
2EE-/)	8G/ 8B-/ 8e-/L	.	4.b-\	.
.	8G/ 8B-/ 8e-/	.	.	.
.	8G/ 8B-/ 8e-/	.	.	.
.	8G/ 8B-/ 8e-/	.	8g/	.
[4GGG/ [4GG/	8G/ 8B-/ 8e-/	.	8e-/	.
.	8G/ 8B-/ 8e-/J	.	8f/	.
=45	=45	=45	=45	=45
2.GGG/_ 2.GG/_	8F/ 8G/ 8e-/L	pp	[4g/	pp
.	8F/ 8G/ 8Bn/ 8e-/	.	.	.
.	8F/ 8G/ 8B/ 8d/	.	(12g/L]	.
.	.	.	12f/	.
.	8F/ 8G/ 8B/ 8d/	.	.	.
.	.	.	12e-/J	.
.	8E-/ 8G/ 8c/	.	12f/L	.
.	.	.	12g/	.
.	8E-/ 8G/ 8c/J	.	.	.
.	.	.	12a-/J	.
=46	=46	=46	=46	=46
2.GGG/] 2.GG/]	8D/ 8G/ 8c/L	.	2.g/)	.
.	8D/ 8G/ 8c/	.	.	.
.	8D/ 8G/	.	.	.
.	8D/ 8G/ 8Bn/	.	.	.
.	8D/ 8F/ 8G/ 8B/	.	.	.
.	8D/ 8F/ 8G/ 8B/J	.	.	.
=47	=47	=47	=47	=47
2CCC/ 2CC/	8E-/ 8G/ 8c/L	.	2.c/	.
.	8E-/ 8G/ 8c/	.	.	.
.	8E-/ 8G/ 8c/	.	.	.
.	8E-/ 8G/ 8c/	.	.	.
4CCC/ 4CC/	8E-/ 8G/ 8c/	.	.	.
.	8E-/ 8G/ 8c/J	.	.	.
=48	=48	=48	=48	=48
2CCC/ 2CC/	2E-/ 2G/ 2c/	.	2.r	.
4r	4r	.	.	.
==	==	==	==	==
*-	*-	*-	*-	*-
!!!ENC: Craig Stuart Sapp
!!!END: 2004/11/27/
